X:1
T:Bourgeois, 87.87.77.88
T:Bourgeois, 87.87.77.88
T:Louis Bourgeois, 1551
T:Public Domain Courtesy of the Cyber Hymnal™
C:Louis Bourgeois, 1551
Z:Public Domain
Z:Courtesy of the Cyber Hymnal™
%%score ( 1 2 ) ( 3 4 )
L:1/8
M:none
K:F
V:1 treble 
V:2 treble 
V:3 bass 
V:4 bass 
V:1
 F4 [EG]2 [FA]4 [CG]2 | [DF]2 [CE]2 D4 [A,C]4 | [DF]4 [CG]2 [FA]4 [DB]2 | [FA]4 [EG]4 F8 | %4
 [DF]4 [CG]2 [CA]4 [CG]2 | [A,F]2 [CE]2 D4 C4 | [DF]4 [EG]2 [FA]4 [FB]2 | A4 z2 E2 F8 x2 | %8
 [FA]4 [FA]2 [Fc]4 [DB]2 | [FA]2 [EG]2 [FA]8 | [_Ec]4 [Ec]2 [Dd]4 [=Ec]2 | [FB]2 [FA]2 G8 | %12
 [FA]4 [Ec]2 [DB]4 [CA]2 | F2 [DG]2 [EA]4 F4 | [^FA]4 [FA]2 [GB]4 [=FA]2 | %15
 [DG]2 [A,F]2 [CE]4 [CF]4 |] %16
V:2
 F4 x8 | x4 (C2 B,2) x4 | x12 | x8 F8 | x12 | x4 (C2 =B,2) x4 | x12 | F6 G4 F8 | x12 | x12 | x12 | %11
 x4 (F4 E4) | x12 | x12 | x12 | x12 |] %16
V:3
 [F,A,]4 [C,C]2 [F,C]4 [E,C]2 | [D,A,]2 [A,,A,]2 [B,,F,]4 [F,,F,]4 | %2
 [D,A,]4 [E,C]2 [F,C]4 [G,,B,]2 | C6 z2 [F,A,]8 | [D,A,]4 [E,G,]2 F,4 [C,E,]2 | %5
 [D,F,]2 [E,G,]2 [F,A,]2 G,2 [C,E,]4 | [B,,F,]4 [G,,G,B,]2 [F,,F,A,]4 [B,,D]2 | %7
 D6 [C,C]2 [F,,F,A,]8 x2 | [F,C]4 [F,C]2 [F,,F,A,]4 [G,,G,]2 | [A,,C]2 [C,C]2 [F,,C]8 | %10
 [C,G,]4 [C,A,]2 [B,,B,]4 [C,A,]2 | [D,F,]2 [F,C]2 [C,C]8 | %12
 [F,C]4 [A,,C]2 [D,F,]2 [E,G,]2 [F,A,]2 | [D,A,]2 [B,,D]2 (D2 ^C2) [D,D]4 | %14
 [D,D]4 [D,D]2 [G,,D]4 [A,,C]2 | [B,,B,]2 [D,F,]2 [C,G,]4 [F,,F,A,]4 |] %16
V:4
 x12 | x12 | x12 | (A,,2 B,,2) (C,4 B,2) x6 | x12 | x12 | x12 | (D,2 C,2 B,,2) x12 | x12 | x12 | %10
 x12 | x12 | x12 | x4 A,,4 x4 | x12 | x12 |] %16

